X:336
T:Ode to Joy
M:4/4
K:G
B2 B2 c2 d2|d2 c2 B2 A2|G2 G2 A2 B2|B3 A A4|
B2 B2 c2 d2|d2 c2 B2 A2|G2 G2 A2 B2|A3 G G4||
A2 A2 B2 G2|A2 Bc B2 G2|A2 Bc B2 A2|G2 A2 D4|
B4 c2 d2|d2 c2 B2 A2|G2 G2 A2 B2|A3 G G4||
